X:1
T:The Crafty Farmer
M:6/8
L:1/8
K:C
 G| c2 c cdB| c3 z GG| ccc cdc| c3 z2 c| A2 A ABc| G G2 z EF| G2 A G2 E|\
 G3 A3| EEE E2 D| C3 z2 D| EGG G2 A| G3 z2 A|
M:9/8
 EEE E2 D C2 D|
M:6/8
 EAA A2 G| A2 z2||
